X:72
T: Tamás Gyurka ideki
O: Klézse (Bákó), 1930
Q: 1/4=138
L:1/4
M:2/4
K:F
F/F/F/F/ | c d | (cA) | 
c/c/c/A/ | B (3:2:3 (A/G/A/) | F z | 
A/c/c/A/ | B (3:2:3 (A/G/F/) |(GF)
A/c/c/A/ | B (3:2:3 (A/G/A/) | F z | 

